!!!OTL: MARIA WOL AN DEM RAE SATT
!!!ARE: Europa, Mitteleuropa, Deutschland, Westfalen, Eichsfeld
!!!SCT: E2068
!!!YEM: Copyright 1995, estate of Helmut Schaffrath.
**kern
*ICvox
*Ivox
*M3/8
*k[b-e-]
*g:
{8d
=1
8g
8g
8g
=2
4g
8a
=3
4b-
8a
=4
4g}
{16b-
16cc
=5
8.dd
16dd
8dd
=6
8.dd
16dd
16cc
16b-
=7
4.a
=8
4r}
{8dd
=9
8a
8b-
8cc
=10
8dd
8cc
8dd
=11
16cc
16b-
4a
=12
4r}
{8dd
=13
8dd
8g
8g
=14
8cc
8b-
8a
=15
4.g
=16
4r}
==
!!!AGN: geistlich, Marien - Lied, Legende
!!!ONB: ESAC (Essen Associative Code) Database: ERK3
!!!AMT: simple triple
!!!AIN: vox
!!!EED: Helmut Schaffrath
!!!EEV: 1.0
*-
